assets/sonr-icons/scales.svg

<svg xmlns="http://www.w3.org/2000/svg" width="24" height="24" fill="none" viewBox="0 0 24 24"><path stroke="#000" stroke-linecap="round" stroke-linejoin="round" stroke-width="2" d="M12 3V20M12 20H6.99999M12 20H17M2.99999 6H7.52785C7.83834 6 8.14457 5.92771 8.42228 5.78885L9.5777 5.21115C9.85541 5.07229 10.1616 5 10.4721 5H13.5279C13.8384 5 14.1446 5.07229 14.4223 5.21115L15.5777 5.78885C15.8554 5.92771 16.1616 6 16.4721 6H21M5.49999 6L3.02043 13.4387C2.71807 14.3458 3.08918 15.3834 4.0053 15.657C5.0117 15.9577 5.98828 15.9577 6.99468 15.657C7.9108 15.3834 8.28191 14.3457 7.97955 13.4387L5.49999 6ZM18.5 6L16.0204 13.4387C15.7181 14.3458 16.0892 15.3834 17.0053 15.657C18.0117 15.9577 18.9883 15.9577 19.9947 15.657C20.9108 15.3834 21.2819 14.3457 20.9796 13.4387L18.5 6Z"/></svg>

<svg xmlns="http://www.w3.org/2000/svg" width="24" height="24" fill="none"><path stroke="#000" stroke-linecap="round" stroke-linejoin="round" stroke-width="2" d="M12 3v17m0 0H7m5 0h5M3 6h4.528a2 2 0 0 0 .894-.211l1.156-.578A2 2 0 0 1 10.472 5h3.056a2 2 0 0 1 .894.211l1.156.578a2 2 0 0 0 .894.211H21M5.5 6l-2.48 7.439c-.302.907.07 1.944.985 2.218 1.007.3 1.983.3 2.99 0 .916-.274 1.287-1.311.985-2.218zm13 0-2.48 7.439c-.302.907.07 1.944.985 2.218 1.007.3 1.983.3 2.99 0 .916-.274 1.287-1.311.985-2.218z"/></svg>
